X:1
T:The Savior’s Face
T:The Savior’s Face
T:George Frederick Root
T:Edward Augustus Collier, 1891
T:Public Domain Courtesy of the Cyber Hymnal™
T:Public Domain Courtesy of the Cyber Hymnal™
C:George Frederick Root
Z:Public Domain
Z:Courtesy of the Cyber Hymnal™
%%score ( 1 2 ) ( 3 4 )
L:1/8
Q:1/4=110
M:4/4
K:C
V:1 treble 
V:2 treble 
V:3 bass 
V:4 bass 
V:1
 [CE]2 | [CE]3 [DF] [EG]2 [Ec]2 | [GB]2 [FA]2 [EG]2 [CE]2 | [CE]3 [DF] [EG]2 [Ec]2 | %4
w: 1.~How|sweet, O Lord, Thy|word of grace Which|bids a sin- ner|
w: 2.~Thy|vis- age, marred and|crowned with thorn, Thou|didst not hide from|
w: 3.~The|heavens de- clare Thy|power and love; In|all Thy works, be-|
w: 4.~The|bright- ness of Thy|glo- ry, Lord, Fills|Heaven and earth and|
 [GB]2 [FA]2 [EG]2 [CE]2 | D2 [DG]2 [DA]2 [DB]2 | (d4 c2) [EB]2 | [^FA]3 [F^G] [FA]2 [FB]2 | %8
w: seek Thy face, And|ne- ver seek in|vain, * And|ne- ver seek in|
w: grief and scorn, Nor|from the dew of|night, * Nor|from the dew of|
w: low, a- bove, Thy|maj- es- ty I|trace, * Thy|maj- es- ty I|
w: writ- ten Word With|beams of heaven- ly|grace, * With|beams of heaven- ly|
 G6 G2 | [Ec]2 [Ec]2 [Ec]2 [EB]2 | [FA]3 [F^G] [FA]2 [FA]2 | [^Fd]2 [Fd]2 [Fd]2 [Fc]2 | %12
w: vain; That|face, once set so|stead- fast- ly To|meet Thy cross of|
w: night; Yet,|in that face a|love ap- pears Which|scat- ters all my|
w: trace, But|mer- cy shines not|in the skies, And|hope with- in my|
w: grace; But|all the hosts of|Heav- en shine With|no such ra- di-|
 [FB]3 [F^A] [FB]2 [FG]2 | [Ee]2 [Fd]2 [Gc]2 [EG]2 | [FA]6 [FA]2 | [DG]2 [EA]2 [FB]2 [Fd]2 | %16
w: ag- o- ny, Can|nev- er me dis-|dain, Can|nev- er me dis-|
w: gloom- y fears, And|fills my soul with|light, And|fills my soul with|
w: spir- it dies, Un-|til I see Thy|face, Un-|til I see Thy|
w: ance di- vine As|Thy most bless- èd|face, As|Thy most bless- èd|
 [Ec]6 |] %17
w: dain.|
w: light.|
w: face.|
w: face.|
V:2
 x2 | x8 | x8 | x8 | x8 | D2 x6 | E6 x2 | x8 | G6 G2 | x8 | x8 | x8 | x8 | x8 | x8 | x8 | x6 |] %17
V:3
 [C,G,]2 | [C,G,]3 [C,G,] [C,G,]2 [C,G,]2 | (F,G,) (A,B,) [C,C]2 [C,G,]2 | %3
 [C,G,]3 [C,G,] [C,G,]2 [C,G,]2 | (F,G,) (A,B,) [C,C]2 [C,G,]2 | %5
 [B,,G,]2 [B,,G,]2 [A,,^F,]2 [G,,G,]2 | [C,G,]6 [C,G,]2 | [D,C]3 [D,B,] [D,C]2 [D,D]2 | %8
 [G,B,]6 G,2 | [C,G,]2 [C,C]2 [C,C]2 [C,C]2 | [F,C]3 [F,C] [F,C]2 [F,A,]2 | %11
 [D,A,]2 [D,D]2 [D,D]2 [D,D]2 | [G,D]3 [G,D] [G,D]2 [G,D]2 | [C,C]2 [D,G,]2 [E,G,]2 [C,C]2 | %14
 [F,C]6 [F,C]2 | [G,B,]2 [G,C]2 [G,D]2 [G,B,]2 | [C,C]6 |] %17
V:4
 x2 | x8 | C,2 C,2 x4 | x8 | C,2 C,2 x4 | x8 | x8 | x8 | x6 G,2 | x8 | x8 | x8 | x8 | x8 | x8 | %15
 x8 | x6 |] %17

